images/sdv-logo-trans-orange.svg

<?xml version="1.0" encoding="UTF-8"?>
<svg width="70px" height="111px" viewBox="0 0 70 111" version="1.1" xmlns="http://www.w3.org/2000/svg" xmlns:xlink="http://www.w3.org/1999/xlink">
    <title>sdv-logo-2</title>
    <g id="sdv-logo-2" stroke="none" stroke-width="1" fill="none" fill-rule="evenodd">
        <path d="M41.6893686,2.77105403 L42.1208263,2.77454945 C56.3313324,3.00495114 67.7800902,14.5963631 67.7800902,28.8617757 L67.7800902,28.8617757 L67.7800902,81.9803857 L67.7765948,82.4118435 C67.5461931,96.6223495 55.9547812,108.071107 41.6893686,108.071107 L41.6893686,108.071107 L27.8286727,108.071107 L27.3972149,108.067612 C13.1867088,107.83721 1.73795103,96.2457983 1.73795103,81.9803857 L1.73795103,81.9803857 L1.73795103,28.8617757 L1.74144644,28.4303179 C1.97184814,14.2198118 13.5632601,2.77105403 27.8286727,2.77105403 L27.8286727,2.77105403 L41.6893686,2.77105403 Z M40.2686366,16.5119225 L29.3417668,16.5119225 C24.8126584,16.5119225 21.344565,17.7075438 18.9374864,20.0987863 C16.5304078,22.4900288 15.3268686,25.9660403 15.3268686,30.5268208 L15.329211,56.1716492 L41.0287667,64.6376578 L41.0287667,77.6073772 C41.0287667,80.2044883 39.7302111,81.5030439 37.1331001,81.5030439 L32.4773034,81.5030439 C29.8801923,81.5030439 28.5816367,80.2044883 28.5816367,77.6073772 L28.5715272,68.5333245 L15.3268686,64.6376578 L15.3268686,80.3153406 C15.3268686,84.8761211 16.5304078,88.3521326 18.9374864,90.7433751 C21.344565,93.1346176 24.8126584,94.3302389 29.3417668,94.3302389 L40.2686366,94.3302389 C44.8610891,94.3302389 48.3450187,93.1425356 50.7204251,90.7671291 C53.0958316,88.3917227 54.2835349,84.9077932 54.2835349,80.3153406 L54.2784929,55.0563973 L28.5816367,46.6320767 L28.5816367,33.2347842 C28.5816367,31.9995728 28.9221117,31.0414922 29.6030615,30.3605423 C30.2840114,29.6795925 31.242092,29.3391175 32.4773034,29.3391175 L37.1331001,29.3391175 C39.7302111,29.3391175 41.0287667,30.6376731 41.0287667,33.2347842 L41.0361767,42.356345 L54.2784929,46.6320767 L54.2835349,30.5268208 C54.2835349,25.9343682 53.0958316,22.4504387 50.7204251,20.0750323 C48.3450187,17.6996258 44.8610891,16.5119225 40.2686366,16.5119225 Z" id="Combined-Shape" fill="#FF9300" fill-rule="nonzero"></path>
    </g>
</svg>

<svg xmlns="http://www.w3.org/2000/svg" width="70" height="111" viewBox="0 0 70 111"><title>sdv-logo-2</title><path fill="#FF9300" fill-rule="nonzero" d="M41.69 2.771l.43.004c14.211.23 25.66 11.821 25.66 26.087V81.98l-.003.432c-.23 14.21-11.822 25.66-26.088 25.66H27.83l-.432-.004c-14.21-.23-25.659-11.822-25.659-26.088V28.862l.003-.432C1.971 14.22 13.563 2.771 27.83 2.771h13.86zm-1.421 13.74H29.342c-4.53 0-7.997 1.197-10.405 3.588-2.407 2.391-3.61 5.867-3.61 10.428l.002 25.645 25.7 8.466v12.97c0 2.596-1.299 3.895-3.896 3.895h-4.656c-2.597 0-3.895-1.299-3.895-3.896l-.01-9.074-13.245-3.895v15.677c0 4.561 1.203 8.037 3.61 10.428 2.408 2.392 5.876 3.587 10.405 3.587h10.927c4.592 0 8.076-1.187 10.451-3.563 2.376-2.375 3.564-5.86 3.564-10.452l-.006-25.259-25.696-8.424V33.235c0-1.235.34-2.194 1.021-2.874.681-.681 1.64-1.022 2.874-1.022h4.656c2.597 0 3.896 1.299 3.896 3.896l.007 9.121 13.242 4.276.006-16.105c0-4.593-1.188-8.077-3.564-10.452-2.375-2.375-5.859-3.563-10.451-3.563z"/></svg>
